brandFactory_export/1.Light/Bajada dinero_1Light.svg

<?xml version="1.0" encoding="UTF-8"?>
<svg width="24px" height="24px" viewBox="0 0 24 24" version="1.1" xmlns="http://www.w3.org/2000/svg" xmlns:xlink="http://www.w3.org/1999/xlink">
    <title>1.Light/Bajada dinero_1Light</title>
    <g id="Symbols" stroke="none" stroke-width="1" fill="none" fill-rule="evenodd">
        <g id="1.Light/Bajada-dinero_1Light" fill="#5CB615" fill-rule="nonzero">
            <path d="M0.904201681,6.09411765 C0.904201681,5.81176471 1.12941176,5.58319328 1.40840336,5.58319328 L2.12773109,5.58319328 C2.11092437,5.37478992 2.08403361,5.17647059 2.08403361,4.9512605 C2.08403361,4.8605042 2.10084034,4.77983193 2.10084034,4.68907563 L1.40840336,4.68907563 C1.12941176,4.68907563 0.904201681,4.4605042 0.904201681,4.17815126 C0.904201681,3.89579832 1.12941176,3.66722689 1.40840336,3.66722689 L2.20504202,3.66722689 C2.62521008,1.36470588 4.23529412,0.104201681 6.85714286,0.104201681 C7.80168067,0.104201681 8.62521008,0.265546218 9.30420168,0.58487395 C9.55630252,0.705882353 9.66722689,1.00840336 9.54957983,1.26386555 C9.43193277,1.51932773 9.13277311,1.6302521 8.88067227,1.51260504 C8.33613445,1.25714286 7.65378151,1.12605042 6.85714286,1.12605042 C4.79327731,1.12605042 3.61008403,1.9697479 3.23361345,3.66722689 L6.0907563,3.66722689 C6.3697479,3.66722689 6.59495798,3.89579832 6.59495798,4.17815126 C6.59495798,4.4605042 6.3697479,4.68907563 6.0907563,4.68907563 L3.10588235,4.68907563 C3.10252101,4.77983193 3.08907563,4.85714286 3.08907563,4.9512605 C3.08907563,5.17647059 3.1092437,5.37815126 3.12941176,5.58319328 L6.0907563,5.58319328 C6.3697479,5.58319328 6.59495798,5.81176471 6.59495798,6.09411765 C6.59495798,6.37647059 6.3697479,6.60504202 6.0907563,6.60504202 L3.31764706,6.60504202 C3.77478992,8.05714286 4.94453782,8.77310924 6.85714286,8.77310924 C7.66386555,8.77310924 8.35294118,8.63865546 8.90084034,8.37647059 C9.14957983,8.25882353 9.45210084,8.36302521 9.5697479,8.62184874 C9.68739496,8.87731092 9.57983193,9.17983193 9.32773109,9.30084034 C8.64537815,9.62689076 7.81176471,9.79495798 6.85378151,9.79495798 C4.37647059,9.79495798 2.81680672,8.66554622 2.29243697,6.60504202 L1.40504202,6.60504202 C1.12941176,6.60504202 0.904201681,6.37647059 0.904201681,6.09411765 Z M21.6907563,22.3058824 C21.9663866,22.2218487 22.6151261,21.9865546 22.6151261,21.6571429 L22.6151261,20.2319328 C22.4235294,20.3327731 22.2151261,20.4235294 21.9865546,20.4941176 C21.2705882,20.712605 20.3394958,20.8336134 19.3579832,20.8336134 C18.3798319,20.8336134 17.4453782,20.712605 16.7294118,20.4941176 C16.4907563,20.4201681 16.2789916,20.3327731 16.087395,20.2352941 L16.087395,21.6537815 C16.087395,21.9831933 16.7327731,22.2184874 17.0117647,22.302521 C18.2655462,22.6857143 20.4336134,22.6857143 21.6907563,22.3058824 L21.6907563,22.3058824 Z M14.1546218,22.3058824 C14.6521008,22.1546218 14.9579832,21.9294118 15.0756303,21.7546218 L15.0756303,20.1815126 C14.8840336,20.2789916 14.6756303,20.3731092 14.4470588,20.4436975 C13.7310924,20.6621849 12.7966387,20.7831933 11.8184874,20.7831933 C10.8403361,20.7831933 9.90588235,20.6621849 9.18991597,20.4436975 C8.94789916,20.3697479 8.7394958,20.2823529 8.54789916,20.1848739 L8.54789916,21.7647059 C8.65210084,21.9260504 8.95798319,22.1445378 9.48235294,22.302521 C10.7226891,22.6857143 12.9142857,22.6857143 14.1546218,22.3058824 Z M6.61512605,22.3058824 C7.11260504,22.1546218 7.41848739,21.9327731 7.53613445,21.7546218 L7.53613445,20.205042 C7.3512605,20.2991597 7.14285714,20.3831933 6.90420168,20.4571429 C6.18823529,20.6756303 5.25714286,20.7966387 4.27563025,20.7966387 C3.29747899,20.7966387 2.36302521,20.6756303 1.64705882,20.4571429 C1.40168067,20.3831933 1.19327731,20.2957983 1.00504202,20.2016807 L1.00504202,21.7680672 C1.10252101,21.9226891 1.38823529,22.1378151 1.93613445,22.3058824 C3.18319328,22.6857143 5.37478992,22.6857143 6.61512605,22.3058824 Z M1.93277311,18.5109244 C1.37142857,18.6823529 1.15294118,18.8672269 1.06554622,18.9882353 C1.1394958,19.1058824 1.34117647,19.297479 1.9394958,19.4789916 C3.18991597,19.8588235 5.37142857,19.8588235 6.61512605,19.4789916 C7.19327731,19.3008403 7.40168067,19.1159664 7.4789916,19.0016807 C7.3210084,18.7529412 6.84033613,18.5781513 6.60840336,18.507563 C5.36134454,18.1310924 3.18319328,18.1310924 1.93277311,18.5109244 Z M9.47226891,15.6705882 C9.02857143,15.805042 8.72605042,15.9798319 8.61176471,16.1546218 C8.68907563,16.2756303 8.90084034,16.4605042 9.4789916,16.6386555 C10.7294118,17.0184874 12.9042017,17.0184874 14.1546218,16.6386555 C14.7294118,16.4605042 14.9378151,16.2756303 15.0184874,16.1579832 C14.8605042,15.912605 14.3798319,15.7378151 14.1478992,15.6672269 C12.907563,15.2907563 10.7159664,15.2907563 9.47226891,15.6705882 L9.47226891,15.6705882 Z M17.0117647,12.8806723 C16.4504202,13.0521008 16.2319328,13.2369748 16.1445378,13.3579832 C16.2184874,13.4756303 16.4201681,13.6672269 17.0184874,13.8521008 C18.2655462,14.2319328 20.4470588,14.2319328 21.6941176,13.8521008 C22.2689076,13.6773109 22.4773109,13.4890756 22.5579832,13.3714286 C22.4,13.1260504 21.9193277,12.9512605 21.687395,12.8806723 C20.4403361,12.5008403 18.2621849,12.5008403 17.0117647,12.8806723 L17.0117647,12.8806723 Z M16.087395,17.394958 L16.087395,18.9781513 C16.1915966,19.1428571 16.497479,19.3579832 17.0184874,19.5159664 C18.2689076,19.8957983 20.4504202,19.8957983 21.6941176,19.5159664 C22.1882353,19.3647059 22.497479,19.1394958 22.6151261,18.9647059 L22.6151261,17.3915966 C22.4235294,17.492437 22.2151261,17.5831933 21.9865546,17.6537815 C21.2705882,17.8722689 20.3361345,17.9932773 19.3579832,17.9932773 C18.3798319,17.9932773 17.4453782,17.8722689 16.7294118,17.6537815 C16.487395,17.5831933 16.2789916,17.492437 16.087395,17.394958 L16.087395,17.394958 Z M16.7294118,14.8302521 C16.4840336,14.7563025 16.2756303,14.6689076 16.087395,14.5747899 L16.087395,16.1411765 C16.1848739,16.2957983 16.4705882,16.507563 17.0184874,16.6789916 C18.2689076,17.0588235 20.4470588,17.0588235 21.697479,16.6789916 C22.1915966,16.5277311 22.497479,16.3058824 22.6151261,16.1277311 L22.6151261,14.5781513 C22.4302521,14.6722689 22.2218487,14.7563025 21.9831933,14.8302521 C21.2672269,15.0487395 20.3327731,15.1697479 19.3546218,15.1697479 C18.3764706,15.1697479 17.4420168,15.0487395 16.7294118,14.8302521 L16.7294118,14.8302521 Z M8.54789916,17.3613445 L8.54789916,18.9310924 C8.6487395,19.0857143 8.93445378,19.297479 9.48235294,19.4655462 C10.7294118,19.8453782 12.9109244,19.8453782 14.1579832,19.4655462 C14.6521008,19.3142857 14.9613445,19.0890756 15.0789916,18.9142857 L15.0789916,17.3680672 C14.8941176,17.4621849 14.6890756,17.5462185 14.4504202,17.6168067 C13.7310924,17.8352941 12.8,17.9563025 11.8218487,17.9563025 C10.8436975,17.9563025 9.91260504,17.8352941 9.19327731,17.6168067 C8.94789916,17.5462185 8.73613445,17.4588235 8.54789916,17.3613445 Z M21.9798319,11.902521 C23.3378151,12.3193277 23.6235294,13.0184874 23.6235294,13.5327731 L23.6235294,21.6571429 C23.6235294,22.1714286 23.3378151,22.8705882 21.9798319,23.2840336 C21.2571429,23.502521 20.3260504,23.6235294 19.3512605,23.6235294 C18.3764706,23.6235294 17.4420168,23.502521 16.7226891,23.287395 C16.1882353,23.1226891 15.8218487,22.9142857 15.5731092,22.692437 C15.2840336,22.9378151 14.907563,23.1462185 14.4470588,23.287395 C13.7310924,23.5058824 12.8,23.6268908 11.8184874,23.6268908 C10.8369748,23.6268908 9.90252101,23.5058824 9.18991597,23.287395 C8.69915966,23.1394958 8.31932773,22.9310924 8.03361345,22.692437 C7.74453782,22.9378151 7.36806723,23.1462185 6.90756303,23.287395 C6.19495798,23.5058824 5.2605042,23.6268908 4.2789916,23.6268908 C3.29747899,23.6268908 2.36302521,23.5058824 1.65042017,23.287395 C0.98487395,23.0857143 0.507563025,22.7831933 0.228571429,22.4134454 C0.0941176471,22.3226891 0.00336134454,22.1747899 0.00336134454,21.9966387 L0.00336134454,19.1663866 C0.00336134454,19.0453782 0.0201680672,18.9243697 0.0504201681,18.810084 L0.0504201681,18.8067227 C0.211764706,18.2386555 0.749579832,17.8117647 1.64369748,17.5361345 C3.0789916,17.0991597 5.46890756,17.0991597 6.90084034,17.5361345 C7.15294118,17.6134454 7.35798319,17.7008403 7.5394958,17.794958 L7.5394958,16.3260504 C7.5394958,16.205042 7.55630252,16.0840336 7.58655462,15.9697479 L7.58655462,15.9663866 C7.74789916,15.3983193 8.28235294,14.9680672 9.17983193,14.6991597 C10.605042,14.2621849 13.0117647,14.2621849 14.4403361,14.6991597 C14.692437,14.7764706 14.8941176,14.8638655 15.0756303,14.9579832 L15.0756303,13.5361345 C15.0756303,13.4151261 15.092437,13.2941176 15.1226891,13.1764706 C15.2840336,12.6084034 15.8218487,12.1815126 16.7159664,11.9058824 C18.1546218,11.4655462 20.5445378,11.4655462 21.9798319,11.902521 L21.9798319,11.902521 Z M17.210084,4.79663866 L15.9563025,4.80672269 L18.9983193,7.93277311 L22.0537815,4.80672269 L20.8168067,4.79663866 C20.4235294,4.78655462 20.1243697,4.4605042 20.1344538,4.07394958 L20.1310924,1.10252101 C20.1310924,1.05882353 20.097479,1.02184874 20.0537815,1.02184874 L17.9529412,1.02184874 C17.9092437,1.02184874 17.8756303,1.05882353 17.8756303,1.10252101 L17.8789916,4.08739496 C17.8890756,4.45714286 17.589916,4.78319328 17.210084,4.79663866 L17.210084,4.79663866 Z M18.4672269,8.84033613 L14.7159664,4.98823529 C14.5109244,4.73613445 14.4773109,4.43697479 14.594958,4.19159664 C14.7092437,3.94621849 14.9478992,3.79495798 15.2134454,3.79495798 L16.8705882,3.78151261 L16.8672269,1.10588235 C16.8672269,0.497478992 17.3546218,0.00336134454 17.9529412,0.00336134454 L20.0537815,0.00336134454 C20.6521008,0.00336134454 21.1394958,0.497478992 21.1394958,1.10588235 L21.1428571,3.78151261 L22.8033613,3.79495798 C23.0655462,3.79495798 23.3008403,3.94957983 23.4184874,4.19495798 C23.5327731,4.44369748 23.4991597,4.74285714 23.3277311,4.95462185 L19.492437,8.88067227 C19.3848739,9.02184874 19.2,9.10252101 19.0084034,9.10252101 C18.8605042,9.10252101 18.7058824,9.05546218 18.5781513,8.95462185 C18.5478992,8.92436975 18.4907563,8.86722689 18.4672269,8.84033613 L18.4672269,8.84033613 Z" id="Bajada-dinero_1Light"></path>
        </g>
    </g>
</svg>

<svg width="24" height="24" viewBox="0 0 24 24" xmlns="http://www.w3.org/2000/svg"><path d="M.904 6.094c0-.282.225-.51.504-.51h.72c-.017-.21-.044-.408-.044-.633 0-.09.017-.171.017-.262h-.693a.507.507 0 01-.504-.51c0-.283.225-.512.504-.512h.797C2.625 1.365 4.235.104 6.857.104c.945 0 1.768.162 2.447.48a.515.515 0 01.246.68.502.502 0 01-.67.249c-.544-.256-1.226-.387-2.023-.387-2.064 0-3.247.844-3.623 2.541H6.09c.279 0 .504.229.504.511 0 .283-.225.511-.504.511H3.106c-.003.09-.017.168-.017.262 0 .225.02.427.04.632h2.962c.279 0 .504.229.504.511 0 .282-.225.511-.504.511H3.318c.457 1.452 1.627 2.168 3.54 2.168.806 0 1.495-.134 2.043-.397a.5.5 0 01.669.246.514.514 0 01-.242.679c-.683.326-1.516.494-2.474.494-2.478 0-4.037-1.13-4.562-3.19h-.887a.506.506 0 01-.5-.51zm20.787 16.212c.275-.084.924-.32.924-.649v-1.425c-.191.1-.4.192-.628.262-.716.219-1.648.34-2.629.34-.978 0-1.913-.121-2.629-.34a4.054 4.054 0 01-.642-.259v1.419c0 .33.646.564.925.649 1.254.383 3.422.383 4.679.003zm-7.536 0c.497-.151.803-.377.92-.551v-1.573c-.191.097-.4.191-.628.262-.716.218-1.65.34-2.629.34-.978 0-1.912-.122-2.628-.34a3.928 3.928 0 01-.642-.26v1.58c.104.162.41.38.934.539 1.24.383 3.432.383 4.673.003zm-7.54 0c.498-.151.803-.373.921-.551v-1.55a3.99 3.99 0 01-.632.252c-.716.219-1.647.34-2.628.34-.979 0-1.913-.121-2.629-.34a3.99 3.99 0 01-.642-.255v1.566c.098.155.383.37.931.538 1.247.38 3.439.38 4.68 0zM1.933 18.51c-.562.171-.78.356-.867.477.073.118.275.31.873.491 1.25.38 3.432.38 4.676 0 .578-.178.787-.363.864-.477-.158-.25-.639-.424-.87-.494-1.248-.377-3.426-.377-4.676.003zm7.54-2.84c-.444.134-.747.309-.861.484.077.12.289.306.867.484 1.25.38 3.425.38 4.676 0 .574-.178.783-.363.863-.481-.157-.245-.638-.42-.87-.49-1.24-.377-3.432-.377-4.676.003zm7.539-2.79c-.562.171-.78.356-.867.477.073.118.275.31.873.494 1.248.38 3.43.38 4.676 0 .575-.175.783-.363.864-.48-.158-.246-.639-.42-.87-.491-1.248-.38-3.426-.38-4.676 0zm-.925 4.514v1.583c.105.165.41.38.931.538 1.25.38 3.432.38 4.676 0 .494-.151.803-.377.921-.551v-1.573c-.191.1-.4.191-.628.262-.716.218-1.65.34-2.629.34-.978 0-1.913-.122-2.629-.34a3.65 3.65 0 01-.642-.259zm.642-2.565a3.99 3.99 0 01-.642-.255v1.566c.098.155.384.367.931.538 1.25.38 3.43.38 4.68 0 .494-.151.8-.373.917-.551v-1.55a3.99 3.99 0 01-.632.252c-.716.219-1.65.34-2.628.34-.979 0-1.913-.121-2.626-.34zm-8.181 2.531v1.57c.1.155.386.366.934.535 1.247.38 3.429.38 4.676 0 .494-.152.803-.377.921-.552v-1.546c-.185.094-.39.178-.629.249-.719.218-1.65.34-2.628.34-.978 0-1.91-.122-2.629-.34a3.49 3.49 0 01-.645-.256zm13.432-5.458c1.358.416 1.644 1.115 1.644 1.63v8.124c0 .514-.286 1.214-1.644 1.627-.723.219-1.654.34-2.629.34-.975 0-1.909-.121-2.628-.337-.535-.164-.901-.373-1.15-.595a3.16 3.16 0 01-1.126.595c-.716.219-1.647.34-2.629.34-.981 0-1.915-.121-2.628-.34-.49-.148-.87-.356-1.156-.595a3.16 3.16 0 01-1.126.595c-.713.219-1.647.34-2.629.34s-1.916-.121-2.629-.34c-.665-.201-1.142-.504-1.421-.874a.498.498 0 01-.226-.416v-2.83a1.4 1.4 0 01.047-.357v-.003c.162-.568.7-.995 1.594-1.27 1.435-.438 3.825-.438 5.257 0 .252.076.457.164.638.258v-1.469a1.4 1.4 0 01.048-.356v-.004c.16-.568.695-.998 1.593-1.267 1.425-.437 3.832-.437 5.26 0 .252.077.454.165.636.259v-1.422c0-.12.016-.242.047-.36.161-.568.699-.994 1.593-1.27 1.439-.44 3.829-.44 5.264-.003zm-4.77-7.106l-1.254.01 3.042 3.126 3.056-3.126-1.237-.01a.7.7 0 01-.683-.723l-.003-2.971a.079.079 0 00-.077-.081h-2.101a.079.079 0 00-.077.08l.003 2.985c.01.37-.29.696-.669.71zm1.257 4.043l-3.751-3.852c-.205-.252-.239-.551-.121-.796a.678.678 0 01.618-.397l1.658-.013-.004-2.676c0-.609.488-1.103 1.086-1.103h2.1c.6 0 1.086.494 1.086 1.103l.004 2.676 1.66.013c.263 0 .498.155.615.4a.731.731 0 01-.09.76L19.492 8.88a.609.609 0 01-.484.222.696.696 0 01-.43-.148c-.03-.03-.087-.088-.11-.115z" fill="#5CB615" fill-rule="nonzero"/></svg>
